X: 1
T: Missa [Bergerette savoysienne] / Kyrie
N: Derived from Ano1001a-Missa_Bergerette_savoysienne-Kyrie-Jena_32.krn
C: Anonymous
%%abc-version 2.0
%%abcx-abcm2ps-target-version 5.9.1 (29 Sep 2008)
%%abc-creator hum2abc beta
%%abcx-conversion-date 2019/02/16 20:18:26
%%abc-edited-by Jesse Rodin
%%abc-edited-by Jesse Rodin 8/14/2013
%%abcx-initial-encoding-date 2013/08/14/
%%humdrum-veritas 928122070
%%humdrum-veritas-data 364532894
%%linebreak <none>
%%barnumbers 0
L: 1/4
M: 2/1
Q: 1/2=120
%%staves [1 2 3 4]
V: 1 clef=treble
V: 2 clef=treble-8
V: 3 clef=treble-8
V: 4 clef=bass
K: C
[V:1] z8 | 
[V:2] c8 | 
[V:3] z8 | 
[V:4] z8 | 
[V:1] z8 | 
[V:2] d4e4 | 
[V:3] z8 | 
[V:4] z8 | 
[V:1] c8 | 
[V:2] e4e2f2- | 
[V:3] z8 | 
[V:4] z8 | 
[V:1] d4e4 | 
[V:2] f2edc2c'2- | 
[V:3] z8 | 
[V:4] z8 | 
[V:1] e4e2e2- | 
[V:2] c'baga2g2- | 
[V:3] z8 | 
[V:4] z8 | 
[V:1] edc4BA | 
[V:2] gfe4dc | 
[V:3] z8 | 
[V:4] z8 | 
[V:1] B4z4 | 
[V:2] d4z2d2- | 
[V:3] z8 | 
[V:4] z8 | 
[V:1] f8 | 
[V:2] defga4- | 
[V:3] z8 | 
[V:4] z8 | 
[V:1] e4d4- | 
[V:2] a2g6 | 
[V:3] z8 | 
[V:4] z8 | 
[V:1] d2cBc2d2- | 
[V:2] f2g2e2f2- | 
[V:3] z8 | 
[V:4] z8 | 
[V:1] d2c4B2 | 
[V:2] fedcd4 | 
[V:3] z8 | 
[V:4] z8 | 
[V:1] c6e2- | 
[V:2] c4z4 | 
[V:3] c8 | 
[V:4] z2C,4C2- | 
[V:1] e2d2c4 | 
[V:2] g6a2- | 
[V:3] d4e4 | 
[V:4] C2B,2C2A,2- | 
[V:1] B4A4 | 
[V:2] a2b2c'2ba | 
[V:3] e4e2e2- | 
[V:4] A,2G,2A,2C2- | 
[V:1] z4A4 | 
[V:2] g2f2e4- | 
[V:3] edc4BA | 
[V:4] CB,A,4G,F, | 
[V:1] G6A2- | 
[V:2] e2d3ef2- | 
[V:3] B4z2c2- | 
[V:4] E,2G,4F,2- | 
[V:1] A2GFE3C | 
[V:2] fec4e2 | 
[V:3] cdefg2c2 | 
[V:4] F,2E,D,C,2C2 | 
[V:1] D2C2c4 | 
[V:2] d2g3e^f2 | 
[V:3] gfedc4 | 
[V:4] B,2C4B,A, | 
[V:1] B2d4cB | 
[V:2] g4z2g2 | 
[V:3] d8 | 
[V:4] G,4z2G,2 | 
[V:1] A4z2A2- | 
[V:2] c4d4 | 
[V:3] f6ed | 
[V:4] F,4D,4 | 
[V:1] A2B4G2 | 
[V:2] z2B4c2- | 
[V:3] c2d2G4 | 
[V:4] z2G,4E,2 | 
[V:1] c4d4 | 
[V:2] cBAGF4 | 
[V:3] A6B2 | 
[V:4] F,4D,4 | 
[V:1] e4c2f2- | 
[V:2] G4A4 | 
[V:3] c4f4- | 
[V:4] C,4z2D,2- | 
[V:1] f2d2e2c2 | 
[V:2] _B4G4 | 
[V:3] f2f2e4 | 
[V:4] D,2_B,,2C,4 | 
[V:1] d6g2- | 
[V:2] z4g4 | 
[V:3] d6cd | 
[V:4] G,8 | 
[V:1] gfe4dc | 
[V:2] e6c2 | 
[V:3] c6Bc | 
[V:4] A,8 | 
[V:1] d4c4- | 
[V:2] g8- | 
[V:3] B2cBc4 | 
[V:4] G,4C,4 | 
[V:1] c4B4 | 
[V:2] g8 | 
[V:3] d8 | 
[V:4] G,8 | 
[V:1] c8 ||  
[V:2] g8 ||  
[V:3] c8 ||  
[V:4] C,8 ||  
[V:1]  [K:C] [K:clef=treble][M:2/1]e6dc | 
[V:2]  [K:C] [K:clef=treble-8][M:2/1]c'6ba | 
[V:3]  [K:C] [K:clef=treble-8][M:2/1]z8 | 
[V:4]  [K:C] [K:clef=bass][M:2/1]z8 | 
[V:1] d4g4- | 
[V:2] b6c'2- | 
[V:3] z8 | 
[V:4] z8 | 
[V:1] g4^f4 | 
[V:2] c'baga4 | 
[V:3] z8 | 
[V:4] z8 | 
[V:1] g8 | 
[V:2] g8- | 
[V:3] e8 | 
[V:4] C6B,A, | 
[V:1] z8 | 
[V:2] g8 | 
[V:3] d4g4- | 
[V:4] B,6C2- | 
[V:1] z4c4 | 
[V:2] z8 | 
[V:3] g4^f4 | 
[V:4] CB,A,G,A,4 | 
[V:1] B2cde2d2- | 
[V:2] z4g4- | 
[V:3] g8 | 
[V:4] G,8 | 
[V:1] d2cBA4 | 
[V:2] g4f4 | 
[V:3] z8 | 
[V:4] z8 | 
[V:1] G4z4 | 
[V:2] g2fed4- | 
[V:3] g8 | 
[V:4] z4G,4- | 
[V:1] z8 | 
[V:2] d2e2f4 | 
[V:3] a8 | 
[V:4] G,4F,4 | 
[V:1] z8 | 
[V:2] e2d4cB | 
[V:3] g8 | 
[V:4] G,8 | 
[V:1] z8 | 
[V:2] c8- | 
[V:3] f8- | 
[V:4] A,8- | 
[V:1] z2C3DEF | 
[V:2] c6BA | 
[V:3] f4e4- | 
[V:4] A,8 | 
[V:1] G4A4 | 
[V:2] B4A4- | 
[V:3] e2d2d4- | 
[V:4] G,4F,4 | 
[V:1] B2c3BAG | 
[V:2] A4G4 | 
[V:3] d4^c4 | 
[V:4] E,8 | 
[V:1] F2A4GF | 
[V:2] A2f4ed | 
[V:3] d8 | 
[V:4] D,8 | 
[V:1] E2D2f4 | 
[V:2] c2d3efg | 
[V:3] z8 | 
[V:4] z4D4 | 
[V:1] e2f4ed | 
[V:2] a8- | 
[V:3] z8 | 
[V:4] C2D4CB, | 
[V:1] c4d2e2- | 
[V:2] a4g4- | 
[V:3] z8 | 
[V:4] A,4B,2C2- | 
[V:1] e2dcB4 | 
[V:2] g8 | 
[V:3] z8 | 
[V:4] C2B,A,G,4 | 
[V:1] A4z4 | 
[V:2] f8- | 
[V:3] z4a4- | 
[V:4] z2D,3E,F,2- | 
[V:1] z8 | 
[V:2] f4e4- | 
[V:3] a4g4- | 
[V:4] F,G,A,B,C2C,2 | 
[V:1] z4d4- | 
[V:2] e4d4 | 
[V:3] g4f4 | 
[V:4] C4D4 | 
[V:1] d4c4 | 
[V:2] z8 | 
[V:3] e8 | 
[V:4] G,4A,4 | 
[V:1] d2cBA2_B2- | 
[V:2] z8 | 
[V:3] d8 | 
[V:4] _B,2A,G,F,2G,2- | 
[V:1] BAG4F2 | 
[V:2] z8 | 
[V:3] z8 | 
[V:4] G,A,B,2C2D2 | 
[V:1] G3AB2c2- | 
[V:2] g8- | 
[V:3] z8 | 
[V:4] G,6C2- | 
[V:1] c2d2e2dc | 
[V:2] g8- | 
[V:3] z8 | 
[V:4] C2B,2C4 | 
[V:1] B8 ||  
[V:2] g8 ||  
[V:3] d8 ||  
[V:4] G,8 ||  
[V:1]  [K:C] [K:clef=treble][M:2/1]z8 | 
[V:2]  [K:C] [K:clef=treble-8][M:2/1]z8 | 
[V:3]  [K:C] [K:clef=treble-8][M:2/1]z4z2d2 | 
[V:4]  [K:C] [K:clef=bass][M:2/1]z4z2B,2 | 
[V:1] z4z2d2 | 
[V:2] z8 | 
[V:3] e6d2 | 
[V:4] C6B,2 | 
[V:1] e6d2 | 
[V:2] z4z2g2- | 
[V:3] c4B4 | 
[V:4] C2B,A,G,2B,2 | 
[V:1] c4B4 | 
[V:2] g2f2g4 | 
[V:3] c4d4 | 
[V:4] A,4G,4 | 
[V:1] c4d4 | 
[V:2] e2f2d4 | 
[V:3] z4z2d2 | 
[V:4] z4z2B,2 | 
[V:1] z4z2d2 | 
[V:2] z8 | 
[V:3] e6d2 | 
[V:4] C6B,2 | 
[V:1] e6d2 | 
[V:2] z4z2g2- | 
[V:3] c4B4 | 
[V:4] C2B,A,G,2B,2 | 
[V:1] c4B4 | 
[V:2] g2f2g4 | 
[V:3] c4d4 | 
[V:4] A,4G,4 | 
[V:1] c4d4 | 
[V:2] e2f2d3c | 
[V:3] z8 | 
[V:4] z4z2G,2- | 
[V:1] z8 | 
[V:2] BAG4c2- | 
[V:3] z8 | 
[V:4] G,F,E,D,C,4 | 
[V:1] z2d2e2dc | 
[V:2] c2B2c4 | 
[V:3] z4z2g2- | 
[V:4] D,4C,4 | 
[V:1] d2e3dc2- | 
[V:2] z8 | 
[V:3] gfedc4 | 
[V:4] z8 | 
[V:1] c2B2c3d | 
[V:2] z4z2c2- | 
[V:3] d4c4 | 
[V:4] z8 | 
[V:1] efg3fe2- | 
[V:2] cde3fg2- | 
[V:3] z8 | 
[V:4] C8 | 
[V:1] edc4B2 | 
[V:2] gfe2d4 | 
[V:3] g8- | 
[V:4] G,8 | 
[V:1] c4z4 | 
[V:2] c4z2B2- | 
[V:3] g8 | 
[V:4] z2C,4G,2- | 
[V:1] z4z2e2 | 
[V:2] B2e3dc2- | 
[V:3] z8 | 
[V:4] G,F,E,D,C,4 | 
[V:1] f4e2g2- | 
[V:2] c2B2c4 | 
[V:3] z8 | 
[V:4] D,4C,2C2 | 
[V:1] gfe2d2e2- | 
[V:2] z8 | 
[V:3] z2g3fed | 
[V:4] B,2C2G,2C2- | 
[V:1] edc4B2 | 
[V:2] g8 | 
[V:3] c4d4 | 
[V:4] C2B,A,G,4 | 
[V:1] c8 |]  
[V:2] g8 |]  
[V:3] c8 |]  
[V:4] C,8 |]  



